app/assets/images/litteratie.svg

<svg width="48" height="48" viewBox="0 0 48 48" fill="none" xmlns="http://www.w3.org/2000/svg">
<circle cx="24" cy="24" r="24" fill="#6E84FE"/>
<path fill-rule="evenodd" clip-rule="evenodd" d="M12.75 14.805V31.9452L24 34.4452L35.25 31.9452V14.805L24.8135 17.1242C24.2777 17.2432 23.7223 17.2432 23.1865 17.1242L12.75 14.805ZM23.6746 14.9278C23.8889 14.9754 24.1111 14.9754 24.3254 14.9278L35.6746 12.4057C36.6114 12.1975 37.5 12.9104 37.5 13.87V32.5468C37.5 33.2499 37.0117 33.8586 36.3254 34.0111L24.3254 36.6778C24.1111 36.7254 23.8889 36.7254 23.6746 36.6778L11.6746 34.0111C10.9883 33.8586 10.5 33.2499 10.5 32.5468V13.87C10.5 12.9104 11.3886 12.1975 12.3254 12.4057L23.6746 14.9278Z" fill="white"/>
<path fill-rule="evenodd" clip-rule="evenodd" d="M34.0914 17.7272C34.2421 18.3299 33.8756 18.9407 33.2729 19.0914L27.2729 20.5914C26.6701 20.7421 26.0593 20.3756 25.9086 19.7729C25.7579 19.1701 26.1244 18.5593 26.7272 18.4086L32.7272 16.9086C33.3299 16.7579 33.9407 17.1244 34.0914 17.7272Z" fill="white"/>
<path fill-rule="evenodd" clip-rule="evenodd" d="M34.0914 21.4772C34.2421 22.0799 33.8756 22.6907 33.2729 22.8414L27.2729 24.3414C26.6701 24.4921 26.0593 24.1256 25.9086 23.5229C25.7579 22.9201 26.1244 22.3093 26.7272 22.1586L32.7272 20.6586C33.3299 20.5079 33.9407 20.8744 34.0914 21.4772Z" fill="white"/>
<path fill-rule="evenodd" clip-rule="evenodd" d="M31.0914 25.9772C31.2421 26.5799 30.8756 27.1907 30.2729 27.3414L27.2729 28.0914C26.6701 28.2421 26.0593 27.8756 25.9086 27.2729C25.7579 26.6701 26.1244 26.0593 26.7272 25.9086L29.7272 25.1586C30.3299 25.0079 30.9407 25.3744 31.0914 25.9772Z" fill="white"/>
<path fill-rule="evenodd" clip-rule="evenodd" d="M16.5 19.2191V24.4596L19.5 25.031V19.7905L16.5 19.2191ZM16.0307 16.8392C15.1063 16.6632 14.25 17.3718 14.25 18.3127V25.0802C14.25 25.8004 14.7619 26.419 15.4693 26.5537L19.9693 27.4109C20.8937 27.5869 21.75 26.8783 21.75 25.9374V19.1699C21.75 18.4497 21.2381 17.8311 20.5307 17.6964L16.0307 16.8392Z" fill="white"/>
</svg>

<svg width="48" height="48" fill="none" xmlns="http://www.w3.org/2000/svg"><circle cx="24" cy="24" r="24" fill="#6E84FE"/><path fill-rule="evenodd" clip-rule="evenodd" d="M12.75 14.805v17.14l11.25 2.5 11.25-2.5v-17.14l-10.436 2.32a3.752 3.752 0 01-1.628 0l-10.436-2.32zm10.925.123a1.5 1.5 0 00.65 0l11.35-2.522A1.5 1.5 0 0137.5 13.87v18.677a1.5 1.5 0 01-1.175 1.464l-12 2.667a1.5 1.5 0 01-.65 0l-12-2.667a1.5 1.5 0 01-1.175-1.464V13.87a1.5 1.5 0 011.825-1.464l11.35 2.522z" fill="#fff"/><path fill-rule="evenodd" clip-rule="evenodd" d="M34.091 17.727a1.125 1.125 0 01-.818 1.364l-6 1.5a1.125 1.125 0 11-.546-2.182l6-1.5a1.125 1.125 0 011.364.818zM34.091 21.477a1.125 1.125 0 01-.818 1.364l-6 1.5a1.125 1.125 0 11-.546-2.182l6-1.5a1.125 1.125 0 011.364.818zM31.091 25.977a1.125 1.125 0 01-.818 1.364l-3 .75a1.125 1.125 0 11-.546-2.182l3-.75a1.125 1.125 0 011.364.818zM16.5 19.22v5.24l3 .571v-5.24l-3-.572zm-.47-2.38a1.5 1.5 0 00-1.78 1.473v6.767a1.5 1.5 0 001.22 1.474l4.5.857a1.5 1.5 0 001.78-1.474V19.17a1.5 1.5 0 00-1.22-1.474l-4.5-.857z" fill="#fff"/></svg>
